assets/build/img/icons/tree.svg

<?xml version="1.0" encoding="UTF-8"?>
<svg width="14px" height="14px" viewBox="0 0 14 14" version="1.1" xmlns="http://www.w3.org/2000/svg" xmlns:xlink="http://www.w3.org/1999/xlink">
    <!-- Generator: sketchtool 51.3 (57544) - http://www.bohemiancoding.com/sketch -->
    <title>1F4F9BE8-3F7F-40D2-9567-F7CE846C59EC</title>
    <desc>Created with sketchtool.</desc>
    <defs></defs>
    <g id="Symbols" stroke="none" stroke-width="1" fill="none" fill-rule="evenodd">
        <g id="icon/blue/vizinhanca" transform="translate(-1.000000, -1.000000)" fill="#0d2345" fill-rule="nonzero">
            <g id="noun_Tree_1560867" transform="translate(1.000000, 1.000000)">
                <path d="M0.861538462,7.46666667 C0.861538462,9.05271518 2.14728482,10.3384615 3.73333333,10.3384615 L6.60512821,10.3384615 L6.60512821,13.2102564 C6.60512821,13.5274661 6.86227748,13.7846154 7.17948718,13.7846154 C7.49669688,13.7846154 7.75384615,13.5274661 7.75384615,13.2102564 L7.75384615,10.3384615 L10.625641,10.3384615 C12.2116895,10.3384615 13.4974359,9.05271518 13.4974359,7.46666667 C13.5005237,6.54046132 13.0513461,5.67105062 12.2941538,5.13764103 C12.3300009,4.95893059 12.3482759,4.77714146 12.3487179,4.59487179 C12.349254,3.13839625 11.2593955,1.91215114 9.81292308,1.74174359 C9.36374218,0.685673319 8.32711425,8.55983069e-05 7.17948718,8.55983069e-05 C6.03186011,8.55983069e-05 4.99523218,0.685673319 4.54605128,1.74174359 C3.09957883,1.91215114 2.00972031,3.13839625 2.01025641,4.59487179 C2.01069841,4.77714146 2.02897351,4.95893059 2.06482051,5.13764103 C1.30762828,5.67105062 0.858450623,6.54046132 0.861538462,7.46666667 Z M2.98953846,5.92164103 C3.25614846,5.79224956 3.38054486,5.48125854 3.27671795,5.20369231 C3.07303888,4.68201398 3.13768982,4.0936654 3.44979067,3.62866378 C3.76189151,3.16366216 4.28189089,2.88093538 4.84184615,2.87179487 C4.86338462,2.87179487 4.92225641,2.88041026 4.94235897,2.88041026 C5.21224616,2.89282681 5.45306943,2.71220936 5.51671795,2.44964103 C5.70825597,1.68739768 6.39354715,1.15300344 7.17948718,1.15300344 C7.96542721,1.15300344 8.65071839,1.68739768 8.84225641,2.44964103 C8.90932203,2.70994048 9.14794953,2.88891111 9.41661538,2.88041026 C9.45107692,2.88041026 9.48410256,2.88041026 9.47692308,2.87323077 C10.0434085,2.86856104 10.5753814,3.14495672 10.8972131,3.61116685 C11.2190447,4.07737697 11.288891,4.67278546 11.0836923,5.20082051 C10.9798654,5.47838675 11.1042618,5.78937776 11.3708718,5.91876923 C12.0893765,6.27009522 12.4716723,7.06965246 12.2940057,7.84946882 C12.116339,8.62928518 11.4254221,9.18433082 10.625641,9.18974359 L7.75384615,9.18974359 L7.75384615,7.79117949 L9.72676923,6.83487179 C10.002886,6.69179975 10.1149803,6.35495655 9.97965047,6.07496381 C9.84432064,5.79497107 9.51072857,5.67354293 9.22707692,5.80102564 L7.75384615,6.51466667 L7.75384615,4.02051282 C7.75384615,3.70330312 7.49669688,3.44615385 7.17948718,3.44615385 C6.86227748,3.44615385 6.60512821,3.70330312 6.60512821,4.02051282 L6.60512821,7.10051282 L5.13620513,6.3825641 C4.85150942,6.24219881 4.5069294,6.35920173 4.3665641,6.64389744 C4.22619881,6.92859314 4.34320173,7.27317317 4.62789744,7.41353846 L6.60512821,8.37989744 L6.60512821,9.18974359 L3.73333333,9.18974359 C2.78170423,9.18974359 2.01025641,8.41829577 2.01025641,7.46666667 C2.00961784,6.80537897 2.39123268,6.20330042 2.98953846,5.92164103 Z" id="Shape"></path>
            </g>
        </g>
    </g>
</svg>

<svg width="14" height="14" xmlns="http://www.w3.org/2000/svg"><path d="M.862 7.467a2.872 2.872 0 0 0 2.871 2.871h2.872v2.872a.574.574 0 1 0 1.149 0v-2.872h2.872a2.872 2.872 0 0 0 2.871-2.871 2.837 2.837 0 0 0-1.203-2.33c.036-.178.054-.36.055-.542a2.872 2.872 0 0 0-2.536-2.853 2.862 2.862 0 0 0-5.267 0A2.872 2.872 0 0 0 2.01 4.595c0 .182.019.364.055.543A2.837 2.837 0 0 0 .862 7.467zM2.99 5.922a.574.574 0 0 0 .287-.718 1.71 1.71 0 0 1 1.565-2.332c.021 0 .08.008.1.008a.565.565 0 0 0 .575-.43 1.714 1.714 0 0 1 3.325 0c.067.26.306.439.575.43.034 0 .067 0 .06-.007a1.709 1.709 0 0 1 1.607 2.328.574.574 0 0 0 .287.718 1.723 1.723 0 0 1-.745 3.27H7.754V7.792l1.973-.956a.574.574 0 0 0-.5-1.034l-1.473.714V4.02a.574.574 0 0 0-1.149 0V7.1l-1.469-.718a.575.575 0 0 0-.508 1.03l1.977.967v.81H3.733A1.723 1.723 0 0 1 2.01 7.467c0-.662.381-1.264.98-1.545z" fill="#0d2345"/></svg>
